X:1
T:Light Of The Seven
T: Dr Ford (Advanced Piano Solo)
T: Westworld OST Season 1
T: Composed by Ramin Djawadi Piano arrangement by Nicolas Del Gallo Full playthrough and more at https://www.youtube.com/c/NDGmusic If you want to donate, please check out my Patreon ☺ https://www.patreon.com/ndg 
C:Ramin Djawadi
%%score { ( 1 4 ) | ( 2 3 ) }
L:1/8
Q:1/4=65
M:4/4
K:A
V:1 treble nm="Piano" snm="Pno."
V:4 treble 
V:2 treble 
V:3 treble 
V:1
 !arpeggio![fc'f']8 |[M:5/4] c2 f2 e2 ^d2 e2 |[M:4/4] f8 |[M:5/4] g2 e2 ^d2 f2 c2- |[M:4/4] c8 | %5
 C2 E4 ^D2 | F2 G6 |[M:5/4] AB- B2 Bc- c4 | F8- F2 |[M:4/4] [cc']2 [ff']2 [ee']2 [^d^d']2 | %10
 [^d^d']2 [ee']6 | [aa']2 [ee']2 [^d^d']2 [ee']2- | [ee']8 | %13
 [ee'][ff']- [ff']2 [ff'][gg']- [gg']2 | [gg'][aa']- [aa']6 | %15
[M:5/4] [ee'][ff']- [ff']2 [ff'][gg']- [gg']4 |[M:4/4] [ff']8 || c2 f2 e2 ^d2 | e2 f6 | %19
 g2 e2 ^d2 f2 | c8 | C2 E2 E2 ^D2 | F2 G6 | AB- B2 Bc- c2 |[M:5/4] F8- F2 | %25
[M:4/4] [Cc]2 [Ff]2 [Ee]2 [^D-^d]2 | [D^d]2 [Ee]6 | [Aa]2 [Ee]2 [^D^d]2 [E-e]2 | [Ee]8 | %29
 [Ee]2 [F-f]2 [Ff]2 [Gg]2 | [Gg][Aa]- [Aa]6 | [Ee][Ff]- [Ff]2 [Ff][Gg]- [Gg]2 | [Ff]8- | [Ff]8 || %34
 F/A/B/d/ f/d/B/A/ F/A/B/d/ f/d/B/A/ | =G/A/B/d/ =g/d/B/A/ G/A/B/d/ g/d/B/A/ | %36
 F/A/B/d/ f/d/B/A/ F/A/B/d/ f/d/B/A/ | E/A/B/e/ a/e/B/A/ E/G/B/d/ g/d/B/G/ | %38
 =G/A/B/d/ =g/d/B/A/ G/A/B/d/ g/d/B/A/ | =G/B/d/e/ =g/e/d/B/ G/B/d/e/ g/e/d/B/ | %40
 F/A/B/d/ f/d/B/A/ F/A/B/d/ f/d/B/A/ | F/^A/c/^e/ f/e/c/A/ F/A/c/e/ f/e/c/A/ || %42
 B,/D/F/A/ B/A/F/D/ B,/D/F/A/ B/A/F/D/ | =G,/B,/D/A/ B/A/D/B,/ G,/B,/D/A/ B2 | %44
 B,/D/F/A/ B/A/F/D/ B,/D/F/A/ B/A/F/D/ | E,/A,/B,/E/ A/E/B,/A,/ E,/A,/B,/E/ G/E/B,/A,/ | %46
 =G,/B,/D/F/ =G/F/D/B,/ G,/B,/D/F/ G/F/D/B,/ | E,/=G,/B,/E/ =G/E/B,/G,/ E,/G,/B,/E/ G2 | %48
 B,/D/F/A/ B/A/F/D/ B,/D/F/A/ B/A/F/D/ | F,/C/F/^A/ B/A/F/C/ F,/C/F/A/ B2 || %50
 B,/[I:staff +1]F,/B,/[I:staff -1]A/ B/A/F/D/[I:staff +1] F,/B,/[I:staff -1]D/A/ B/A/F/D/ | %51
 B,/[I:staff +1]D,/B,/[I:staff -1]A/ B/A/D/[I:staff +1]B,/ D,/B,/[I:staff -1]D/A/ B2 | %52
 B,/[I:staff +1]F,/[I:staff -1]D/A/ B/A/D/[I:staff +1]F,/ B,,/F,/[I:staff -1]D/A/ B/A/D/[I:staff +1]F,/ | %53
[I:staff -1] A,/[I:staff +1]E,/B,/[I:staff -1]E/ A/E/B,/[I:staff +1]A,/ E,/A,/[I:staff -1]B,/E/ G/E/B,/A,/ | %54
 B,/[I:staff +1]D,/B,/[I:staff -1]=G/ A/G/D/[I:staff +1]B,/ D,/B,/[I:staff -1]D/G/ A/G/D/B,/ | %55
 A,/[I:staff +1]E,/=G,/[I:staff -1]D/ E/D/B,/[I:staff +1]G,/ E,/G,/[I:staff -1]B,/E/ =G2 | %56
 E/[I:staff +1]F,/B,/[I:staff -1]A/ B/A/F/[I:staff +1]B,/ F,/B,/[I:staff -1]F/A/ B/A/F/B,/ | %57
 ^E/C/F/^A/ B/A/F/C/ F,/C/F/A/ B2 | [B,DFB]2 [DFBd]4 [A,A]2 | [B,DB]2 [E=Ge]4 [A,A]2 | %60
 [B,DFB]2 [FBdf]4 [GBdg]2 | [ABea]4 [GBeg]4 | [Bd=gb]2 [dgbd']4 [Ada]2 | [Ada]2 [Bdb]4 [e=g]e' | %64
 [e=gbe']2 [fbf']4 [Bb]2 | [^e^e']2 [fc'f']6 || %66
 [Ff]/[Aa]/[Bb]/[dd']/ [ff']/[dd']/[Bb]/[Aa]/ [Ff]/[Aa]/[Bb]/[dd']/ [ff']/[dd']/[Bb]/[Aa]/ | %67
 [=G=g]/[Aa]/[Bb]/[dd']/ [g=g']/[dd']/[Bb]/[Aa]/ [Gg]/[Aa]/[Bb]/[dd']/ [gg']/[dd']/[Bb]/[Aa]/ | %68
 [F,F]/[A,A]/[B,B]/[Dd]/ [Ff]/[Dd]/[B,B]/[A,A]/ [F,F]/[A,A]/[B,B]/[Dd]/ [Ff]/[Dd]/[B,B]/[A,A]/ | %69
 [E,E]/[A,A]/[B,B]/[Dd]/ [Aa]/[Dd]/[B,B]/[A,A]/ [E,E]/[G,G]/[B,B]/[Dd]/ [Gg]/[Dd]/[B,B]/[G,G]/ | %70
 [=G,=G]/[A,A]/[B,B]/[Dd]/ [G=g]/[Dd]/[B,B]/[A,A]/ [G,G]/[A,A]/[B,B]/[Dd]/ [Gg]/[Dd]/[B,B]/[A,A]/ | %71
 [=G,=G]/[B,B]/[^D^d]/[Ee]/ [G=g]/[Ee]/[Dd]/[B,B]/ [G,G]/[B,B]/[Dd]/[Ee]/ [Gg]/[Ee]/[Dd]/[B,B]/ | %72
 [F,F]/[A,A]/[B,B]/[Dd]/ [Ff]/[Dd]/[B,B]/[A,A]/ [F,F]/[A,A]/[B,B]/[Dd]/ [Ff]/[Dd]/[B,B]/[A,A]/ | %73
 [F,F]/[^A,^A]/[Cc]/[^E^e]/ [Ff]/[Ee]/[Cc]/[A,A]/ [F,F]/[A,A]/[Cc]/[Ee]/ [Ff]/[Ee]/[Cc]/[A,A]/ || %74
 B2 d4 A2 | B2 e4 A2 | B2 f4 g2 | a4 g4 | B2 d4 A2 | A2 B6 | e2 f4 B2 | ^e2 f6 | [B,B]8 |] %83
V:2
"_Sost." !arpeggio![Fc]8 |[M:5/4] z10 |[M:4/4] z8 |[M:5/4] z10 |[M:4/4] z8 |[K:bass] [C,F,]8 | %6
[K:treble] [fc'f']8 |[M:5/4][K:bass] [B,,F,B,]6- [B,,F,B,]4- | [B,,F,B,]8- [B,,F,B,]2 | %9
[M:4/4] [F,CA]8- | [F,CA]8 | [A,EA]8- | [A,EA]8 | [D,A,D]8- | [D,A,D]8 |[M:5/4] [F,CA]6- [F,CA]4 | %16
[M:4/4] [F,F]8 ||[K:treble] C/F/A AC/F/ AA C/F/A | AC/F/ AA C/F/A AC/F/ | BB C/F/B BC/F/ BB | %20
 C/F/B BC/F/ BB C/F/B | C/G/c cC/G/ cc C/G/c | C/G/c cC/G/ cc C/G/c | B,/=G/d dB,/G/ dd B,/G/d | %24
[M:5/4] B,/=G/d dB,/G/ d6 |[M:4/4][K:bass] C,/F,/A, A,C,/F,/ A,A, C,/F,/A, | %26
 C,/F,/B, B,C,/F,/ B,B, C,/F,/B, | A,,/E,/C CA,,/E,/ CC A,,/E,/C | A,,/E,/C CA,,/E,/ CC A,,/E,/C | %29
 D,,/D,/F, D,F, D,/A,/C D,,/D,/C | D,,/F,/C CD,,/F,/ CC D,,/F,/C | F,,/F,/E EF,,/F,/ EE F,,/F,/E | %32
 F,,/F,/F FF,,/F,/ FF F,,/F,/F | F,,/F,/F- F6 || [B,,,B,,]8 | [=G,,,=G,,]8 | [B,,,B,,]8 | %37
 [E,,,E,,]8 | [=G,,,=G,,]8 | [E,,,E,,]8 | [B,,,B,,]8 | [F,,,F,,]8 || [B,,,B,,]8 | [=G,,,=G,,]8 | %44
 [B,,,B,,]8 | [E,,,E,,]8 | [=G,,,=G,,]8 | [E,,,E,,]8 | [B,,,B,,]8 | [F,,,F,,]8 || [B,,,B,,]8 | %51
 [=G,,,=G,,]8 | [B,,,B,,]8 | [E,,,E,,]8 | [=G,,,=G,,]8 | [E,,,E,,]8 | [B,,,B,,]8 | [F,,,F,,]8 | %58
 [B,,,B,,]8 | [=G,,,=G,,]8 | [B,,,B,,]8 | [E,,,E,,]8 | [=G,,,=G,,]8 | [E,,,E,,]8 | [B,,,B,,]8 | %65
 [F,,,F,,]8 || %66
 [B,,,B,,]2 [B,,F,D]2 z/ [B,,,B,,]/[B,,,B,,]/[B,,,B,,]/ [B,,,B,,]/[B,,,B,,]/[B,,,B,,]/[B,,,B,,]/ | %67
 [=G,,,=G,,]2 [G,,D,B,]2 z/ [G,,,G,,]/[G,,,G,,]/[G,,,G,,]/ [G,,,G,,]/[G,,,G,,]/[G,,,G,,]/[G,,,G,,]/ | %68
 [B,,,B,,]2 [B,,F,D]2 z/ [B,,,B,,]/[B,,,B,,]/[B,,,B,,]/ [B,,,B,,]/[B,,,B,,]/[B,,,B,,]/[B,,,B,,]/ | %69
 [E,,,E,,]2 [E,,B,,E,]2 z/ [E,,,E,,]/[E,,,E,,]/[E,,,E,,]/ [E,,,E,,]/[E,,,E,,]/[E,,,E,,]/[E,,,E,,]/ | %70
 [=G,,,=G,,]2 [G,,D,B,]2 z/ [G,,,G,,]/[G,,,G,,]/[G,,,G,,]/ [G,,,G,,]/[G,,,G,,]/[G,,,G,,]/[G,,,G,,]/ | %71
 [E,,,E,,]2 [E,,B,,E,]2 z/ [E,,,E,,]/[E,,,E,,]/[E,,,E,,]/ [E,,,E,,]/[E,,,E,,]/[E,,,E,,]/[E,,,E,,]/ | %72
 [B,,,B,,]2 [B,,F,D]2 z/ [B,,,,B,,,]/[B,,,,B,,,]/[B,,,,B,,,]/ [B,,,,B,,,]/[B,,,,B,,,]/[B,,,,B,,,]/[B,,,,B,,,]/ | %73
 [F,,,F,,]2 !///-!F,,,3 F,,3 || B,,8 | =G,,8 | B,,8 | E,,8 | =G,,8 | E,,8 | B,,8 | F,,8 | %82
 [B,,,B,,]8 |] %83
V:3
 x8 |[M:5/4] x10 |[M:4/4] x8 |[M:5/4] x10 |[M:4/4] x8 |[K:bass] x8 |[K:treble] x8 | %7
[M:5/4][K:bass] x10 | x10 |[M:4/4] z2 F,,6- | F,,8 | z2 A,,6- | A,,8 | z2 [D,,,D,,]6- | %14
 [D,,,D,,]8 |[M:5/4] z10 |[M:4/4] x8 ||[K:treble] F,8- | F,/F,/C- C2 F,4 | F,8 | %20
 z/ F,/B, z2 z/ F,/B, z2 | z8 | x8 | x8 |[M:5/4] x10 |[M:4/4][K:bass] F,,8- | F,,8 | x8 | x8 | x8 | %30
 x8 | x8 | x8 | x8 || x8 | x8 | x8 | x8 | x8 | x8 | x8 | x8 || x8 | x8 | x8 | x8 | x8 | x8 | x8 | %49
 x8 || x8 | x8 | x8 | x8 | x8 | x8 | x8 | x8 | %58
 z/ D,/F,/A,/ B,/A,/F,/D,/ B,,/D,/F,/A,/ B,/A,/F,/D,/ | %59
 z/ D,/=G,/A,/ B,/A,/G,/D,/ =G,,/D,/G,/A,/ B,/A,/G,/D,/ | %60
 z/ D,/F,/A,/ B,/A,/F,/D,/ B,,/D,/F,/A,/ B,/A,/F,/D,/ | %61
 z/ A,/B,/E/ A/E/B,/A,/ E,/G,/B,/E/ G/E/B,/G,/ | z/ A,/B,/D/ A/D/B,/A,/ =G,/A,/B,/D/ A/D/B,/A,/ | %63
 z/ B,/D/E/ =G/E/D/B,/ =G,/B,/D/E/ G/E/D/B,/ | z/ A,/B,/D/ F/D/B,/A,/ F,/A,/B,/D/ F/D/B,/A,/ | %65
 z/ ^A,/C/^E/ F/E/C/A,/ F,/A,/C/E/ F/E/C/A,/ || x8 | x8 | x8 | x8 | x8 | x8 | x8 | x8 || x8 | x8 | %76
 x8 | x8 | x8 | x8 | x8 | x8 | x8 |] %83
V:4
 x8 |[M:5/4] x10 |[M:4/4] x8 |[M:5/4] x10 |[M:4/4] x8 | x8 | x8 |[M:5/4] x10 | x10 |[M:4/4] x8 | %10
 x8 | x8 | x8 | x8 | x8 |[M:5/4] x10 |[M:4/4] x8 || x8 | x8 | x8 | x8 | z/ F,3/2 z2 z/ F,/C z2 | %22
 F,4 F,4 | z8 |[M:5/4] x10 |[M:4/4] x8 | x8 | x8 | x8 | x8 | x8 | x8 | x8 | x8 || x8 | x8 | x8 | %37
 x8 | x8 | x8 | x8 | x8 || [Bb]2 [dd']4 [Aa]2 | [Bb]8 | [ee']2 [ff']4 [gg']2 | [aa']4 [gg']4 | %46
 [Bb]2 [dd']4 [Aa]2 | [Aa]2 [Bb]6 | [ee']2 [ff']4 [Bb]2 | [^e^e']2 [ff']6 || B2 d4 A2 | B2 e4 A2 | %52
 B2 f4 G2 | A4 G4 | B2 d4 A2 | A2 B6 | e2 f4 B2 | ^e2 f6 | x8 | x8 | x8 | x8 | x8 | x8 | x8 | x8 || %66
 x8 | x8 | x8 | x8 | x8 | x8 | x8 | x8 || x8 | x8 | x8 | x8 | x8 | x8 | x8 | x8 | x8 |] %83

